X: 608
T: Goodbye Liza Jane
B: jims roots
M:4/4
L:1/8
Q: 1/4=100
K:A
V:1 
%Z:Jim Kendrick
|: FG |"A"A2Ac "E"BABd |"A"cAce "D"dcBd |"A"cBA2 AcBA | "E"GF E2E2 FG |
"A"A2 Ac "E"BABd | "A"cAce "D"dcBd | "A"cBAc "E"BAGB | "A"A6:|
|:cd | "A"e4 "D"f3e | "A"c2e2- e2 cB | A2 Ac "E"BABe | "A"Bc3 cBAc |
e4 "D"f3e | "A"c2e2- e2 AB | cBAc "E"BAGB | "A"A6 :|
% abcbook-tune_id 6298c25d07a4526b2085b2cc


% abcbook-boost 0
% abcbook-tablature 
% abcbook-transpose 
% abcbook-lastupdated 1654178398326
% abcbook-soundfonts 
% abcbook-repeats 1


